X:1
T:Cum Dederit
T:Cum Dederit
T:Antonio Lucio Vivaldi   (1678-1741)
C:Vivaldi
%%score { ( 1 3 ) | 2 } 4
L:1/8
Q:1/4=60
M:12/8
K:Bb
V:1 treble nm="Piano" snm="Pf."
V:3 treble 
V:2 bass 
V:4 treble nm="Contralto" snm="A."
V:1
 G,2 G, G,2 G, G,2 G, G,2 G, | G,([GB]/[Ac]/[Bd]) ([Bd][Ac][GB]) G,2 G, G,2 G, | %2
 G,[GB]/[Ac]/[Bd] [Bd][Ac][GB] D2 D D2 D | D[^FA]/[GB]/[Ac] [Ac][GB][^FA] D2 D D2 D | %4
 D[^FA]/[GB]/[Ac] [Ac][GB][^FA] G,2 G, G,2 G, | G2 G G2 A B2 B =B2 =B | c2 c ^c2 ^c d6- | d6- d6- | %8
 [Gd]6- [Gd][GB]/[Ac]/[Bd] [ce]2 [ce] | %9
 [Bd][GB]/[Ac]/[Bd] [ce]2 [ce] [Bd][G,B,]/[A,C]/[B,D] [CE]2 [CE] | %10
 [B,D][G,B,]/[A,C]/[B,D] [CE]2 [CE] [B,D]3 z z2 | G,2 G, G,2 G, G,2 G, G,2 G, | %12
 G,2 G, G,2 G, G,2 G, G,2 G, | G,2 G, G,2 G, G,2 G, G,2 G, | G2 G G2 A B2 B =B2 =B | %15
 c2 c ^c2 ^c d6- | d6- d6 | [Gd]2 G, G,2 G, G,2 G, G,2 G, | %18
 G,[GB]/[Ac]/[Bd] [Bd][Ac][GB] G,2 G, G,2 G, | G,[GB]/[Ac]/[Bd] [Bd][Ac][GB] G,2 G, G,2 G, | %20
 [^FA][^FA]/[GB]/[Ac] [Ac][GB][^FA] [GB]6 | A3 G3 [A,DF][df]/[=eg]/[_fa] [_fa][=eg][d=f] | %22
 [df]2 [FA] [GB]2 [GB] [GB]2 [GB] [FA]2 [FA] | %23
 [GB]2 [GB] [FA]2 [GB] [GB]2 [GB] [FA][df]/[=eg]/[fa] | [fa][=eg][df] D2 D D2 D D2 D | %25
 D2 D D2 D A,2 A, [A,A]2 [A,A] | B2 B =B2 =B c2 c ^c2 ^c | d2 d d2 d d2 d ^c2 ^c | %28
 d[df]/[=eg]/[fa] [fa][=eg][df] D2 D D2 D | DF/G/A AGF D2 C B,2 A, | G,2 G, G,2 G, G,2 G, G,2 G, | %31
 G,[GB]/[Ac]/[Bd] [Bd][Ac][GB] G,2 G, G,2 G, | %32
 D[d^f]/[=eg]/[^fa] [^fa][=eg][d^f] [d^f]2 [^FA] [GB]2 [GB] | %33
 [GB]2 [GB] [^FA]2 [^FA] [GB]2 [GB] [^FA]2 [GB] | %34
 [GB]2 [GB] [^FA][d^f]/[=eg]/[^fa] [^fa][=eg][d^f] A2 A | B2 B =B2 =B c2 c ^c2 ^c | d6- d6- | %37
 d3 c3 B2 [GB] [GB]2 [GB] | [GA]2 [GA] [^FA]2 [^FA] [GB][GB]/[Ac]/[Bd] [Bd][Ac][GB] | %39
 [^FA]2 D A2 A B2 B =B2 =B | c3 ^c3 d6- | d6- d3 c3 | %42
 [Bg]2 [GB] [GB]2 [GB] [GA]2 [GA] [^FA]2 [^FA] | %43
 [GB][GB]/[Ac]/[Bd] [ce]2 [ce] [Bd][GB]/[Ac]/[Bd] [ce]2 [ce] | %44
 [Bd][G,B,]/[A,C]/[B,D] [CE]2 [CE] [B,D][G,B,]/[A,C]/[B,D] [CE]2 [CE] | [B,D]12 |] %46
V:2
 G,,2 G,, G,,2 G,, G,,2 G,, G,,2 G,, | G,,2 [G,,G,] [G,,G,]2 [G,,G,] G,,2 G,, G,,2 G,, | %2
 G,,2 [G,,G,] [G,,G,]2 [G,,G,] D,,2 D,, D,,2 D,, | D,,2 D,, D,,2 D,, D,,2 D,, D,,2 D,, | %4
 D,,2 D,, D,,2 D,, G,,2 G,, G,,2 G,, | %5
 [G,,G,]2 [G,,G,] [G,,G,]2 [G,,G,] [G,,G,]2 [G,,G,] [G,,G,]2 [G,,G,] | %6
 [G,,G,]2 [G,,G,] [G,,G,]2 [G,,G,] D,2 D, D,2 D, | D,2 D, D,2 D, D,2 D, D,2 D, | %8
 [G,,B,]2 [G,,B,] [G,,B,]2 [G,,B,] [G,,G,]2 [G,,G,] [G,,G,]2 [G,,G,] | %9
 [G,,G,]2 G,, G,,2 G,, G,,2 G,, G,,2 G,, | G,,2 G,, G,,2 G,, G,,3 z z2 | %11
 G,,2 G,, G,,2 G,, G,,2 G,, G,,2 G,, | G,,2 G,, G,,2 G,, G,,2 G,, G,,2 G,, | %13
 G,,2 G,, G,,2 G,, G,,2 G,, G,,2 G,, | %14
 [G,,G,]2 [G,,G,] [G,,G,]2 [G,,G,] [G,,G,]2 [G,,G,] [G,,G,]2 [G,,G,] | %15
 [G,,G,]2 [G,,G,] [G,,G,]2 [G,,G,] D,2 D, D,2 D, | D,2 D, D,2 D, D,2 D, D,2 D, | %17
 [G,,G,]2 G,, G,,2 G,, G,,2 G,, G,,2 G,, | G,,2 G,, G,,2 G,, G,,2 G,, G,,2 G,, | %19
 G,,2 G,, G,,2 G,, G,,2 G,, G,,2 G,, | D,2 D, D,2 D, ^C,2 ^C, ^C,2 ^C, | %21
 ^C,2 ^C, ^C,2 ^C, D,2 [D,A,] [D,A,]2 [D,A,] | %22
 [D,D]2 [D,D] [D,D]2 [D,D] [D,D]2 [D,D] [D,D]2 [D,D] | %23
 [D,D]2 [D,D] [D,D]2 [D,D] [D,D]2 [D,D] [D,D]2 [D,D] | [D,D]2 [D,D] D,2 D, D,2 D, D,2 D, | %25
 D,2 D, D,2 D, A,,2 A,, A,,2 A,, | %26
 [A,,A,]2 [A,,A,] [A,,A,]2 [A,,A,] [A,,A,]2 [A,,A,] [A,,A,]2 [A,,A,] | %27
 [A,,A,]2 [A,,A,] [A,,A,]2 [A,,A,] [A,,A,]2 [A,,A,] [A,,A,]2 [A,,A,] | %28
 [D,D]2 [D,D] [D,D]2 [D,D] D,2 D, D,2 D, | D,2 D, D,2 D, D,2 C, B,,2 A,, | %30
 G,,2 G,, G,,2 G,, G,,2 G,, G,,2 G,, | G,,2 G,, G,,2 G,, G,,2 G,, G,,2 G,, | %32
 D,2 [D,D] [D,D]2 [D,D] [D,D]2 [D,D] [D,D]2 [D,D] | %33
 [D,D]2 [D,D] [D,D]2 [D,D] [D,D]2 [D,D] [D,D]2 [D,D] | %34
 [D,D]2 [D,D] [D,D]2 [D,D] [D,D]2 [D,D] [D,D]2 [D,D] | %35
 [D,D]2 [D,D] [D,D]2 [D,D] [D,D]2 [D,D] [D,D]2 [D,D] | %36
 [D,D]2 [D,D] [D,D]2 [D,D] [D,D]2 [D,D] [D,D]2 [D,D] | %37
 [D,D]2 [D,D] [D,D]2 [D,D] [G,,G,]2 [G,,G,] [G,,G,]2 [G,,G,] | %38
 [D,D]2 [D,D] [D,D]2 [D,D] [G,,G,]2 [G,,G,] [G,,G,]2 [G,,G,] | %39
 D,2 D, [D,D]2 [D,D] [D,D]2 [D,D] [D,D]2 [D,D] | %40
 [D,D]2 [D,D] [D,D]2 [D,D] [D,D]2 [D,D] [D,D]2 [D,D] | %41
 [D,D]2 [D,D] [D,D]2 [D,D] [D,D]2 [D,D] [D,D]2 [D,D] | %42
 [G,,G,]2 [G,,G,] [G,,G,]2 [G,,G,] [D,D]2 [D,D] [D,D]2 [D,D] | %43
 [G,,G,]2 G,, G,,2 G,, G,,2 G,, G,,2 G,, | G,,2 G,, G,,2 G,, G,,2 G,, G,,2 G,, | [G,,G,]12 |] %46
V:3
 x12 | x12 | x12 | D2 D D2 D x2 x4 | D2 D D2 D x2 x4 | x12 | z6 D2 D D2 D | %7
 _E2 E =E2 =E F2 F ^F2 ^F | x12 | x12 | x12 | x12 | x12 | x12 | x12 | z2 z2 z2 D2 D D2 D | %16
 _E2 E =E2 =E F2 F ^F2 ^F | x12 | x12 | x12 | D2 D D2 D =E6 | [A,=E]6 z2 z4 | x12 | x12 | x12 | %25
 x12 | x12 | x12 | x12 | x12 | x12 | x12 | x12 | x12 | x12 | x12 | z2 z d2 d e2 e =e2 =e | %37
 f2 f ^f2 ^f g2 z4 | x12 | x12 | x12 | e2 e =e2 =e f2 f ^f2 ^f | z2 z2 z8 | x12 | x12 | x12 |] %46
V:4
 z12 | z12 | z12 | z12 | z12 | z12 | z12 | z12 | z12 | z12 | z3 z3 z3 z2 D | G2 G G2 A B2 B B2 c | %12
w: ||||||||||Cum|de- de- rit ~di- lec- tis su- is|
 d3- d>ec B3- B>cA | G3- G>Bc d>cB A>G^F | G6- G6- | G6 ^F6 | z3 z3 z3 z2 D | G2 G G2 A B2 B B2 c | %18
w: som- * * * * * * *|||* num|Cum|de- de- rit di- lec- tis su- is|
 G6- GB/c/d dBA | G6- GB/c/d dcB | AA/B/c cBA B6 | A3 G3 F3 z z2 | A2 A d>cB B>AG A3 | %23
w: som- * * * * * * *|||* * num|ecce hae- re- di- tas Do- * mi- ni|
 d>cB A2 G G3 F3 | z3 D2 =E F3 ^F3 | =G3 ^G3 A6- | A6- A3 G3 | F2 A d2 D F3 T=E3 | D6- D6 | %29
w: fi- * * li- i mer- ces|fruc- tus ven- *|||* tris fruc- tus ven- *|tris *|
 z6 z3 z2 D | G2 G G2 A B2 c d2 B | G6- G>dc B>AG | ^F3 z3 A2 A d>cB | B>AG A3 d>cB A2 G | %34
w: Cum|de- de- rit di- lec- tis su- is|som- * * * * * *|num ecce hae- re- di- tas|Do- mi- * ni fi- * * li- i|
 G3 ^F3 z3 A2 A | B3 =B3 c3 ^c3 | d6- d6- | d3 c3 B>dc BAG | A6 G3 z3 | z3 A2 A B3 =B3 | %40
w: mer- ces fruc- tus|ven- * * *||* * * * tris fruc- * tus|ven- tris|fruc- tus- ven- *|
 c3 ^c3 d6- | d6- d3 c3 | B>dc BAG A6 | G12 | z12 | z12 |] %46
w: ||* * tris fruc- * tus ven-|tris|||

